icons/unwrap-24.svg

<svg width="24" height="24" viewBox="0 0 24 24" fill="none" xmlns="http://www.w3.org/2000/svg">
<path d="M3.75 5.25C3.55109 5.25 3.36032 5.32902 3.21967 5.46967C3.07902 5.61032 3 5.80109 3 6C3 6.19891 3.07902 6.38968 3.21967 6.53033C3.36032 6.67098 3.55109 6.75 3.75 6.75H20.25C20.4489 6.75 20.6397 6.67098 20.7803 6.53033C20.921 6.38968 21 6.19891 21 6C21 5.80109 20.921 5.61032 20.7803 5.46967C20.6397 5.32902 20.4489 5.25 20.25 5.25H3.75ZM3.75 11.25C3.55109 11.25 3.36032 11.329 3.21967 11.4697C3.07902 11.6103 3 11.8011 3 12C3 12.1989 3.07902 12.3897 3.21967 12.5303C3.36032 12.671 3.55109 12.75 3.75 12.75H20.25C20.4489 12.75 20.6397 12.671 20.7803 12.5303C20.921 12.3897 21 12.1989 21 12C21 11.8011 20.921 11.6103 20.7803 11.4697C20.6397 11.329 20.4489 11.25 20.25 11.25H3.75ZM3.75 17.25C3.55109 17.25 3.36032 17.329 3.21967 17.4697C3.07902 17.6103 3 17.8011 3 18C3 18.1989 3.07902 18.3897 3.21967 18.5303C3.36032 18.671 3.55109 18.75 3.75 18.75H9.25C9.44891 18.75 9.63968 18.671 9.78033 18.5303C9.92098 18.3897 10 18.1989 10 18C10 17.8011 9.92098 17.6103 9.78033 17.4697C9.63968 17.329 9.44891 17.25 9.25 17.25H3.75Z" fill="black"/>
</svg>

<svg xmlns="http://www.w3.org/2000/svg" width="24" height="24" viewBox="0 0 24 24"><path d="M3.75 5.25a.747.747 0 0 0-.53.22.747.747 0 0 0 0 1.06c.14.141.331.22.53.22h16.5c.199 0 .39-.079.53-.22a.747.747 0 0 0 0-1.06.747.747 0 0 0-.53-.22H3.75Zm0 6a.747.747 0 0 0-.53.22.747.747 0 0 0 0 1.06c.14.141.331.22.53.22h16.5c.199 0 .39-.079.53-.22a.747.747 0 0 0 0-1.06.747.747 0 0 0-.53-.22H3.75Zm0 6a.747.747 0 0 0-.53.22.747.747 0 0 0 0 1.06c.14.141.331.22.53.22h5.5c.199 0 .39-.079.53-.22a.747.747 0 0 0 0-1.06.747.747 0 0 0-.53-.22h-5.5Z"/></svg>
